img/logo.svg

<svg width="115" height="44" viewBox="0 0 115 44" fill="none" xmlns="http://www.w3.org/2000/svg">
<path d="M-0.00100708 25.44V0.325998H3.22399V22.174H12.137V25.438L-0.00100708 25.44ZM21.009 0.325998V25.438H17.784V0.326998L21.009 0.325998ZM49.003 3.763C51.496 6.274 52.743 9.303 52.743 12.851C52.743 16.397 51.496 19.427 49.003 21.939C46.51 24.449 43.503 25.705 39.981 25.705C36.459 25.705 33.452 24.45 30.958 21.939C28.465 19.427 27.219 16.397 27.219 12.851C27.219 9.303 28.465 6.274 30.959 3.763C33.452 1.251 36.459 -0.00400162 39.981 -0.00400162C43.503 -0.00400162 46.511 1.251 49.003 3.763ZM39.981 3.276C37.352 3.276 35.111 4.21 33.257 6.078C31.403 7.946 30.476 10.203 30.476 12.851C30.476 15.497 31.406 17.758 33.265 19.631C35.125 21.504 37.363 22.441 39.981 22.441C42.609 22.441 44.851 21.504 46.705 19.631C48.559 17.758 49.487 15.497 49.487 12.851C49.487 10.203 48.559 7.946 46.705 6.078C44.851 4.21 42.609 3.276 39.981 3.276ZM58.64 0.326998H61.585L71.869 18.25V0.326998H75.111V25.439H72.29L61.865 7.295V25.44H58.64V0.326998ZM84.918 0.326998V25.439H81.692V0.326998H84.918ZM110.808 19.459L113.223 21.641C110.273 24.351 107.151 25.706 103.858 25.706C100.336 25.706 97.334 24.456 94.851 21.956C92.368 19.454 91.127 16.43 91.127 12.883C91.127 9.347 92.368 6.323 94.851 3.811C97.334 1.3 100.336 0.0439984 103.858 0.0439984C107.151 0.0439984 110.273 1.4 113.223 4.109L110.808 6.323C108.585 4.334 106.268 3.34 103.858 3.34C101.25 3.34 99.019 4.272 97.165 6.134C95.31 7.996 94.383 10.246 94.383 12.883C94.383 15.53 95.31 17.785 97.165 19.648C99.019 21.51 101.25 22.441 103.858 22.441C106.268 22.441 108.585 21.448 110.808 19.459ZM52.977 40.864H56.322V41.537H52.247V34.31H52.977V40.864ZM57.537 39.332C57.558 39.57 57.615 39.795 57.71 40.006C57.8897 40.4124 58.2156 40.7365 58.623 40.914C58.826 41.004 59.045 41.047 59.282 41.047C59.64 41.047 59.949 40.964 60.209 40.797C60.469 40.63 60.667 40.438 60.802 40.22L61.319 40.65C61.035 41.01 60.723 41.268 60.381 41.425C60.0357 41.5822 59.6604 41.6624 59.281 41.66C58.931 41.66 58.604 41.597 58.303 41.471C58.003 41.345 57.744 41.171 57.528 40.946C57.3083 40.7152 57.1345 40.4448 57.016 40.149C56.8887 39.8308 56.8248 39.4907 56.828 39.148C56.828 38.788 56.889 38.454 57.011 38.148C57.133 37.842 57.301 37.576 57.518 37.352C57.734 37.127 57.988 36.952 58.278 36.825C58.568 36.7 58.882 36.637 59.221 36.637C59.579 36.637 59.9 36.702 60.183 36.831C60.467 36.961 60.705 37.132 60.898 37.347C61.091 37.561 61.238 37.813 61.339 38.102C61.441 38.392 61.492 38.699 61.492 39.026V39.332H57.537ZM60.762 38.781C60.762 38.325 60.626 37.956 60.356 37.673C60.086 37.39 59.707 37.249 59.221 37.249C59.005 37.249 58.795 37.292 58.592 37.376C58.389 37.462 58.212 37.576 58.06 37.719C57.9099 37.8591 57.7863 38.0251 57.695 38.209C57.6051 38.3863 57.5582 38.5822 57.558 38.781H60.762ZM63.072 42.497C63.268 42.762 63.523 42.975 63.838 43.135C64.152 43.295 64.502 43.375 64.887 43.375C65.224 43.375 65.512 43.325 65.748 43.227C65.9681 43.1398 66.1645 43.0017 66.321 42.824C66.467 42.654 66.571 42.454 66.636 42.227C66.699 41.999 66.731 41.755 66.731 41.497V40.639H66.711C66.495 40.966 66.231 41.197 65.921 41.333C65.6108 41.469 65.2756 41.5385 64.937 41.537C64.593 41.537 64.27 41.476 63.97 41.354C63.6779 41.2375 63.411 41.0657 63.184 40.848C62.961 40.633 62.785 40.378 62.657 40.078C62.5268 39.7713 62.4612 39.4411 62.464 39.108C62.464 38.761 62.525 38.437 62.647 38.138C62.769 37.838 62.935 37.576 63.149 37.351C63.362 37.127 63.615 36.952 63.909 36.825C64.202 36.7 64.526 36.637 64.877 36.637C65.019 36.637 65.169 36.65 65.327 36.677C65.6734 36.7372 65.9992 36.8829 66.275 37.101C66.431 37.221 66.576 37.371 66.712 37.556H66.732V36.759H67.4V41.497C67.4 41.755 67.368 42.031 67.305 42.323C67.24 42.616 67.115 42.885 66.929 43.13C66.7223 43.3923 66.4568 43.6022 66.154 43.743C65.822 43.906 65.39 43.988 64.856 43.988C64.384 43.988 63.961 43.91 63.589 43.752C63.2034 43.5859 62.858 43.339 62.576 43.028L63.072 42.497ZM63.194 39.087C63.1934 39.5673 63.3766 40.0295 63.706 40.379C63.865 40.545 64.05 40.679 64.263 40.776C64.476 40.876 64.708 40.924 64.958 40.924C65.4329 40.9269 65.8905 40.7459 66.235 40.419C66.404 40.259 66.535 40.067 66.625 39.842C66.717 39.618 66.759 39.366 66.752 39.087C66.752 38.835 66.712 38.599 66.63 38.377C66.552 38.1611 66.4313 37.9631 66.275 37.795C66.1151 37.6251 65.9221 37.4897 65.708 37.397C65.4712 37.2955 65.2156 37.245 64.958 37.249C64.708 37.249 64.476 37.299 64.263 37.397C63.9407 37.5454 63.6682 37.784 63.4785 38.0839C63.2889 38.3838 63.19 38.7322 63.194 39.087ZM71.942 38.607V38.485C71.942 37.661 71.537 37.249 70.726 37.249C70.171 37.249 69.688 37.436 69.276 37.811L68.871 37.331C69.317 36.868 69.986 36.637 70.877 36.637C71.107 36.637 71.329 36.671 71.542 36.739C71.754 36.806 71.938 36.911 72.094 37.051C72.249 37.191 72.374 37.365 72.469 37.576C72.564 37.786 72.611 38.04 72.611 38.332V40.465C72.611 40.649 72.62 40.841 72.636 41.042C72.653 41.243 72.672 41.408 72.692 41.537H72.043C72.0219 41.4121 72.0069 41.2863 71.998 41.16C71.9882 41.0272 71.9832 40.8941 71.983 40.761H71.963C71.766 41.082 71.535 41.311 71.268 41.451C71.001 41.591 70.674 41.661 70.289 41.661C70.079 41.661 69.878 41.631 69.681 41.573C69.4917 41.5187 69.3146 41.4287 69.159 41.308C68.9989 41.1852 68.8701 41.0264 68.7829 40.8445C68.6957 40.6626 68.6525 40.4627 68.657 40.261C68.657 39.873 68.757 39.568 68.957 39.347C69.162 39.1222 69.4197 38.9521 69.707 38.852C70.007 38.744 70.328 38.676 70.67 38.648C71.011 38.621 71.324 38.608 71.607 38.608L71.942 38.607ZM71.598 39.158C71.428 39.158 71.218 39.168 70.964 39.184C70.7171 39.2 70.4725 39.2412 70.234 39.307C70.0157 39.3641 69.8119 39.4667 69.636 39.608C69.5539 39.676 69.4887 39.7622 69.4457 39.8597C69.4026 39.9573 69.3829 40.0635 69.388 40.17C69.388 40.326 69.42 40.46 69.484 40.573C69.548 40.685 69.634 40.776 69.742 40.848C69.85 40.919 69.97 40.971 70.102 41.002C70.234 41.032 70.368 41.047 70.502 41.047C70.745 41.047 70.957 41.007 71.136 40.924C71.315 40.843 71.466 40.733 71.586 40.594C71.7097 40.4517 71.8018 40.2846 71.856 40.104C71.913 39.916 71.942 39.716 71.942 39.505V39.158H71.598ZM74.983 41.538H74.314V33.818H74.983V41.538ZM83.051 35.504C82.734 35.034 82.271 34.799 81.662 34.799C81.4737 34.7987 81.2862 34.8246 81.105 34.876C80.9288 34.9244 80.7626 35.0037 80.614 35.11C80.458 35.2236 80.3324 35.3739 80.2483 35.5477C80.1642 35.7214 80.1243 35.9132 80.132 36.106C80.132 36.432 80.224 36.687 80.406 36.866C80.588 37.047 80.814 37.196 81.085 37.311C81.355 37.426 81.651 37.531 81.972 37.622C82.292 37.714 82.589 37.837 82.858 37.99C83.129 38.143 83.356 38.345 83.538 38.597C83.72 38.849 83.811 39.193 83.811 39.628C83.811 39.955 83.741 40.25 83.604 40.511C83.4701 40.7673 83.2833 40.9922 83.056 41.171C82.83 41.347 82.576 41.483 82.296 41.578C82.0238 41.672 81.7379 41.7203 81.45 41.721C81.01 41.721 80.593 41.638 80.198 41.471C79.7919 41.2959 79.4425 41.0113 79.189 40.649L79.859 40.169C80.013 40.435 80.229 40.647 80.505 40.808C80.781 40.968 81.108 41.048 81.485 41.048C81.667 41.048 81.849 41.018 82.031 40.961C82.213 40.903 82.376 40.818 82.521 40.705C82.665 40.594 82.785 40.455 82.88 40.292C82.974 40.128 83.02 39.942 83.02 39.73C83.02 39.479 82.968 39.27 82.864 39.103C82.7583 38.9344 82.6166 38.7913 82.449 38.684C82.2652 38.5663 82.0673 38.4722 81.86 38.404C81.6342 38.327 81.4079 38.2516 81.181 38.178C80.9502 38.1044 80.7233 38.0193 80.501 37.923C80.2885 37.8321 80.0907 37.7101 79.914 37.561C79.7377 37.4089 79.5962 37.2206 79.499 37.009C79.394 36.789 79.341 36.511 79.341 36.177C79.341 35.83 79.407 35.527 79.539 35.269C79.6646 35.0178 79.8447 34.7978 80.066 34.625C80.286 34.455 80.534 34.329 80.811 34.247C81.088 34.166 81.372 34.125 81.662 34.125C82.068 34.125 82.436 34.19 82.768 34.319C83.098 34.449 83.406 34.676 83.69 35.004L83.051 35.504ZM89.843 39.148C89.843 39.509 89.78 39.842 89.655 40.148C89.5362 40.446 89.359 40.7173 89.134 40.946C88.9066 41.1727 88.6359 41.3512 88.338 41.471C88.03 41.597 87.69 41.661 87.318 41.661C86.954 41.661 86.618 41.597 86.31 41.471C86.0123 41.3514 85.7418 41.1729 85.515 40.946C85.2895 40.7179 85.112 40.4469 84.993 40.149C84.8654 39.8309 84.8015 39.4908 84.805 39.148C84.805 38.788 84.867 38.454 84.993 38.148C85.117 37.842 85.291 37.576 85.515 37.351C85.737 37.127 86.002 36.952 86.31 36.825C86.6309 36.6972 86.9736 36.6333 87.319 36.637C87.69 36.637 88.029 36.7 88.338 36.825C88.645 36.952 88.91 37.127 89.134 37.351C89.356 37.576 89.53 37.841 89.654 38.147C89.78 38.454 89.843 38.787 89.843 39.147V39.148ZM89.113 39.148C89.1152 38.8941 89.0722 38.6418 88.986 38.403C88.8682 38.0576 88.6427 37.759 88.3427 37.5513C88.0426 37.3436 87.6838 37.2376 87.319 37.249C87.042 37.249 86.793 37.299 86.574 37.397C86.354 37.497 86.168 37.631 86.016 37.8C85.864 37.971 85.746 38.172 85.661 38.403C85.577 38.634 85.534 38.883 85.534 39.148C85.534 39.414 85.577 39.662 85.661 39.894C85.746 40.125 85.864 40.326 86.016 40.495C86.168 40.667 86.354 40.801 86.574 40.899C86.794 40.998 87.042 41.047 87.319 41.047C87.596 41.047 87.844 40.998 88.064 40.899C88.284 40.801 88.471 40.667 88.626 40.495C88.782 40.326 88.902 40.125 88.986 39.894C89.071 39.662 89.113 39.414 89.113 39.148ZM91.88 41.538H91.21V33.818H91.88V41.538ZM96.917 41.538C96.9041 41.4103 96.8961 41.2823 96.893 41.154C96.8888 41.0264 96.8869 40.8987 96.887 40.771H96.867C96.793 40.901 96.698 41.021 96.583 41.129C96.468 41.239 96.34 41.331 96.198 41.409C96.056 41.488 95.905 41.549 95.747 41.594C95.587 41.638 95.431 41.66 95.276 41.66C94.667 41.66 94.217 41.498 93.927 41.175C93.637 40.852 93.492 40.391 93.492 39.792V36.759H94.161V39.404C94.161 39.67 94.181 39.904 94.221 40.108C94.262 40.313 94.331 40.484 94.43 40.623C94.527 40.763 94.659 40.869 94.825 40.94C94.99 41.011 95.197 41.047 95.448 41.047C95.481 41.047 95.576 41.034 95.732 41.007C95.9107 40.9691 96.0788 40.8919 96.224 40.781C96.395 40.659 96.549 40.476 96.684 40.231C96.819 39.985 96.887 39.645 96.887 39.209V36.759H97.556V40.486C97.5635 40.8371 97.5805 41.1879 97.607 41.538H96.917ZM101.581 37.371H100.212V40.19C100.212 40.367 100.229 40.511 100.263 40.623C100.297 40.737 100.344 40.823 100.405 40.884C100.465 40.9449 100.54 40.9887 100.623 41.011C100.707 41.036 100.8 41.047 100.902 41.047C101.016 41.047 101.135 41.03 101.257 40.996C101.377 40.962 101.49 40.918 101.591 40.864L101.621 41.486C101.211 41.6631 100.755 41.7062 100.319 41.609C100.179 41.5745 100.049 41.5077 99.939 41.414C99.8161 41.3083 99.719 41.1759 99.655 41.027C99.58 40.864 99.543 40.649 99.543 40.384V37.371H98.54V36.759H99.543V35.411H100.213V36.759H101.581V37.371ZM103.466 34.922C103.466 35.065 103.416 35.182 103.314 35.274C103.224 35.3607 103.105 35.4097 102.98 35.411C102.855 35.41 102.735 35.3609 102.645 35.274C102.595 35.23 102.556 35.1757 102.53 35.1149C102.503 35.0541 102.49 34.9883 102.492 34.922C102.492 34.779 102.543 34.662 102.645 34.57C102.735 34.4826 102.855 34.4332 102.98 34.432C103.101 34.432 103.212 34.478 103.314 34.57C103.415 34.661 103.466 34.779 103.466 34.922ZM103.314 41.537H102.644V36.76H103.314V41.537ZM109.72 39.147C109.72 39.509 109.657 39.842 109.533 40.149C109.407 40.455 109.233 40.72 109.011 40.946C108.784 41.1726 108.513 41.3512 108.215 41.471C107.891 41.6007 107.544 41.6652 107.195 41.661C106.831 41.661 106.495 41.597 106.188 41.471C105.89 41.3514 105.619 41.1729 105.392 40.946C105.167 40.7174 104.99 40.4465 104.87 40.149C104.742 39.8309 104.679 39.4908 104.682 39.148C104.682 38.788 104.744 38.454 104.87 38.148C104.995 37.842 105.169 37.576 105.392 37.351C105.614 37.127 105.88 36.952 106.188 36.825C106.508 36.6971 106.851 36.6333 107.196 36.637C107.568 36.637 107.906 36.7 108.215 36.825C108.522 36.952 108.787 37.127 109.011 37.351C109.233 37.576 109.407 37.841 109.533 38.147C109.657 38.454 109.72 38.787 109.72 39.147ZM108.99 39.147C108.992 38.8935 108.949 38.6417 108.864 38.403C108.785 38.1804 108.662 37.9755 108.504 37.8C108.346 37.6284 108.154 37.4912 107.941 37.397C107.706 37.2951 107.452 37.2447 107.196 37.249C106.919 37.249 106.67 37.299 106.451 37.397C106.231 37.497 106.046 37.631 105.893 37.8C105.738 37.9767 105.618 38.1813 105.539 38.403C105.454 38.634 105.412 38.883 105.412 39.148C105.412 39.414 105.454 39.662 105.539 39.894C105.623 40.125 105.742 40.326 105.893 40.495C106.046 40.667 106.231 40.801 106.451 40.899C106.671 40.998 106.919 41.047 107.196 41.047C107.473 41.047 107.721 40.998 107.941 40.899C108.161 40.801 108.348 40.667 108.503 40.495C108.659 40.326 108.779 40.125 108.863 39.894C108.948 39.662 108.99 39.414 108.99 39.148V39.147ZM111.574 36.759C111.588 36.889 111.596 37.016 111.6 37.142C111.603 37.268 111.605 37.396 111.605 37.525H111.625C111.699 37.396 111.794 37.277 111.909 37.167C112.147 36.948 112.434 36.7889 112.746 36.703C112.904 36.659 113.061 36.637 113.216 36.637C113.825 36.637 114.274 36.798 114.565 37.122C114.855 37.445 115 37.906 115 38.505V41.537H114.331V38.893C114.331 38.362 114.241 37.956 114.057 37.673C113.875 37.39 113.537 37.249 113.044 37.249C112.949 37.2577 112.855 37.2714 112.761 37.29C112.582 37.3273 112.414 37.4038 112.269 37.514C112.076 37.661 111.918 37.8497 111.808 38.066C111.673 38.311 111.605 38.651 111.605 39.087V41.537H110.936V37.811C110.928 37.4599 110.911 37.1091 110.885 36.759H111.574ZM42.982 38.726H-7.08003e-06V37.38H42.983L42.982 38.726Z" fill="#3172B9"/>
</svg>

<svg width="115" height="44" fill="none" xmlns="http://www.w3.org/2000/svg"><path d="M-.001 25.44V.326h3.225v21.848h8.913v3.264l-12.138.002zM21.009.326v25.112h-3.225V.327l3.225-.001zm27.994 3.437c2.493 2.511 3.74 5.54 3.74 9.088 0 3.546-1.247 6.576-3.74 9.088-2.493 2.51-5.5 3.766-9.022 3.766-3.522 0-6.529-1.255-9.023-3.766-2.493-2.512-3.739-5.542-3.739-9.088 0-3.548 1.246-6.577 3.74-9.088 2.493-2.512 5.5-3.767 9.022-3.767 3.522 0 6.53 1.255 9.022 3.767zm-9.022-.487c-2.629 0-4.87.934-6.724 2.802-1.854 1.868-2.781 4.125-2.781 6.773 0 2.646.93 4.907 2.789 6.78 1.86 1.873 4.098 2.81 6.716 2.81 2.628 0 4.87-.937 6.724-2.81s2.782-4.134 2.782-6.78c0-2.648-.928-4.905-2.782-6.773-1.854-1.868-4.096-2.802-6.724-2.802zM58.64.327h2.945L71.869 18.25V.327h3.242v25.112H72.29L61.865 7.295V25.44H58.64V.327zm26.278 0v25.112h-3.226V.327h3.226zm25.89 19.132l2.415 2.182c-2.95 2.71-6.072 4.065-9.365 4.065-3.522 0-6.524-1.25-9.007-3.75-2.483-2.502-3.724-5.526-3.724-9.073 0-3.536 1.241-6.56 3.724-9.072C97.334 1.3 100.336.044 103.858.044c3.293 0 6.415 1.356 9.365 4.065l-2.415 2.214c-2.223-1.989-4.54-2.983-6.95-2.983-2.608 0-4.839.932-6.693 2.794-1.855 1.862-2.782 4.112-2.782 6.749 0 2.647.927 4.902 2.782 6.765 1.854 1.862 4.085 2.793 6.693 2.793 2.41 0 4.727-.993 6.95-2.982zM52.977 40.864h3.345v.673h-4.075V34.31h.73v6.554zm4.56-1.532c.021.238.078.463.173.674.18.406.506.73.913.908.203.09.422.133.659.133.358 0 .667-.083.927-.25.26-.167.458-.359.593-.577l.517.43c-.284.36-.596.618-.938.775-.345.157-.72.237-1.1.235a2.51 2.51 0 01-.978-.189c-.3-.126-.559-.3-.775-.525a2.51 2.51 0 01-.512-.797 2.63 2.63 0 01-.188-1.001c0-.36.061-.694.183-1 .122-.306.29-.572.507-.796.216-.225.47-.4.76-.527.29-.125.604-.188.943-.188.358 0 .679.065.962.194.284.13.522.301.715.516.193.214.34.466.441.755.102.29.153.597.153.924v.306h-3.955zm3.225-.551c0-.456-.136-.825-.406-1.108-.27-.283-.649-.424-1.135-.424-.216 0-.426.043-.629.127-.203.086-.38.2-.532.343-.15.14-.274.306-.365.49-.09.177-.137.373-.137.572h3.204zm2.31 3.716c.196.265.451.478.766.638.314.16.664.24 1.049.24.337 0 .625-.05.861-.148a1.5 1.5 0 00.573-.403c.146-.17.25-.37.315-.597.063-.228.095-.472.095-.73v-.858h-.02a1.83 1.83 0 01-.79.694c-.31.136-.645.206-.984.204-.344 0-.667-.061-.967-.183a2.443 2.443 0 01-.786-.506 2.32 2.32 0 01-.527-.77 2.43 2.43 0 01-.193-.97 2.545 2.545 0 01.685-1.757c.213-.224.466-.399.76-.526.293-.125.617-.188.968-.188.142 0 .292.013.45.04.346.06.672.206.948.424.156.12.301.27.437.455h.02v-.797h.668v4.738c0 .258-.032.534-.095.826-.065.293-.19.562-.376.807a2.13 2.13 0 01-.775.613c-.332.163-.764.245-1.298.245-.472 0-.895-.078-1.267-.236a2.935 2.935 0 01-1.013-.724l.496-.531zm.122-3.41c0 .48.183.942.512 1.292.159.166.344.3.557.397.213.1.445.148.695.148.475.003.933-.178 1.277-.505.169-.16.3-.352.39-.577.092-.224.134-.476.127-.755 0-.252-.04-.488-.122-.71a1.706 1.706 0 00-.355-.582 1.714 1.714 0 00-.567-.398 1.832 1.832 0 00-.75-.148c-.25 0-.482.05-.695.148a1.838 1.838 0 00-1.069 1.69zm8.748-.48v-.122c0-.824-.405-1.236-1.216-1.236-.555 0-1.038.187-1.45.562l-.405-.48c.446-.463 1.115-.694 2.006-.694.23 0 .452.034.665.102.212.067.396.172.552.312.155.14.28.314.375.525.095.21.142.464.142.756v2.133a7.29 7.29 0 00.081 1.072h-.649a3.915 3.915 0 01-.045-.377 5.535 5.535 0 01-.015-.399h-.02c-.197.321-.428.55-.695.69-.267.14-.594.21-.979.21-.21 0-.411-.03-.608-.088a1.548 1.548 0 01-.522-.265 1.283 1.283 0 01-.502-1.047c0-.388.1-.693.3-.914a1.83 1.83 0 01.75-.495c.3-.108.621-.176.963-.204.341-.027.654-.04.937-.04l.335-.001zm-.344.551c-.17 0-.38.01-.634.026a3.627 3.627 0 00-.73.123c-.218.057-.422.16-.598.301a.687.687 0 00-.248.562c0 .156.032.29.096.403.064.112.15.203.258.275.108.071.228.123.36.154.132.03.266.045.4.045.243 0 .455-.04.634-.123a1.286 1.286 0 00.72-.82c.057-.188.086-.388.086-.599v-.347h-.344zm3.385 2.38h-.669v-7.72h.669v7.72zm8.068-6.034c-.317-.47-.78-.705-1.389-.705a2.03 2.03 0 00-.557.077 1.55 1.55 0 00-.491.234 1.174 1.174 0 00-.482.996c0 .326.092.581.274.76.182.181.408.33.679.445.27.115.566.22.887.311.32.092.617.215.886.368.271.153.498.355.68.607.182.252.273.596.273 1.031 0 .327-.07.622-.207.883-.134.256-.32.481-.548.66-.226.176-.48.312-.76.407a2.611 2.611 0 01-.846.143 3.18 3.18 0 01-1.252-.25 2.383 2.383 0 01-1.009-.822l.67-.48c.154.266.37.478.646.639.276.16.603.24.98.24.182 0 .364-.03.546-.087.182-.058.345-.143.49-.256.144-.111.264-.25.359-.413.094-.164.14-.35.14-.562 0-.251-.052-.46-.156-.627a1.347 1.347 0 00-.415-.419 2.598 2.598 0 00-.589-.28 47.772 47.772 0 00-.679-.226 7.258 7.258 0 01-.68-.255 2.333 2.333 0 01-.587-.362 1.625 1.625 0 01-.415-.552c-.105-.22-.158-.498-.158-.832 0-.347.066-.65.198-.908.126-.251.306-.471.527-.644.22-.17.468-.296.745-.378.277-.081.561-.122.851-.122.406 0 .774.065 1.106.194.33.13.638.357.922.685l-.639.5zm6.792 3.644c0 .361-.063.694-.188 1-.119.298-.296.57-.521.798a2.39 2.39 0 01-.796.525 2.67 2.67 0 01-1.02.19c-.364 0-.7-.064-1.008-.19a2.377 2.377 0 01-.795-.525 2.4 2.4 0 01-.522-.797 2.617 2.617 0 01-.188-1.001c0-.36.062-.694.188-1 .124-.306.298-.572.522-.797.222-.224.487-.399.795-.526a2.65 2.65 0 011.009-.188c.371 0 .71.063 1.019.188.307.127.572.302.796.526.222.225.396.49.52.796.126.307.189.64.189 1v.001zm-.73 0a2.14 2.14 0 00-.127-.745 1.706 1.706 0 00-1.667-1.154c-.277 0-.526.05-.745.148-.22.1-.406.234-.558.403-.152.171-.27.372-.355.603-.084.231-.127.48-.127.745 0 .266.043.514.127.746.085.231.203.432.355.601.152.172.338.306.558.404.22.099.468.148.745.148.277 0 .525-.049.745-.148.22-.098.407-.232.562-.404.156-.169.276-.37.36-.601.085-.232.127-.48.127-.746zm2.767 2.39h-.67v-7.72h.67v7.72zm5.037 0a5.028 5.028 0 01-.024-.384 11.372 11.372 0 01-.006-.383h-.02c-.074.13-.169.25-.284.358-.115.11-.243.202-.385.28-.142.079-.293.14-.451.185-.16.044-.316.066-.471.066-.609 0-1.059-.162-1.349-.485-.29-.323-.435-.784-.435-1.383v-3.033h.669v2.645c0 .266.02.5.06.704.041.205.11.376.209.515a.9.9 0 00.395.317c.165.071.372.107.623.107.033 0 .128-.013.284-.04.179-.038.347-.115.492-.226a1.62 1.62 0 00.46-.55c.135-.246.203-.586.203-1.022v-2.45h.669v3.727c.008.351.025.702.051 1.052h-.69zm4.664-4.167h-1.369v2.819c0 .177.017.321.051.433.034.114.081.2.142.261a.48.48 0 00.218.127.977.977 0 00.279.036c.114 0 .233-.017.355-.051.12-.034.233-.078.334-.132l.03.622a2.12 2.12 0 01-1.302.123.929.929 0 01-.38-.195 1.065 1.065 0 01-.284-.387c-.075-.163-.112-.378-.112-.643v-3.013H98.54v-.612h1.003v-1.348h.67v1.348h1.368v.612zm1.885-2.449c0 .143-.05.26-.152.352a.488.488 0 01-.334.137.488.488 0 01-.335-.137.444.444 0 01-.115-.16.442.442 0 01-.038-.192c0-.143.051-.26.153-.352a.488.488 0 01.335-.138c.121 0 .232.046.334.138a.454.454 0 01.152.352zm-.152 6.615h-.67V36.76h.67v4.777zm6.406-2.39c0 .362-.063.695-.187 1.002a2.46 2.46 0 01-.522.797 2.387 2.387 0 01-.796.525 2.66 2.66 0 01-1.02.19c-.364 0-.7-.064-1.007-.19a2.38 2.38 0 01-.796-.525 2.433 2.433 0 01-.522-.797 2.619 2.619 0 01-.188-1.001c0-.36.062-.694.188-1 .125-.306.299-.572.522-.797.222-.224.488-.399.796-.526.32-.128.663-.192 1.008-.188.372 0 .71.063 1.019.188.307.127.572.302.796.526.222.225.396.49.522.796.124.307.187.64.187 1zm-.73 0a2.167 2.167 0 00-.126-.744 1.7 1.7 0 00-.923-1.006 1.797 1.797 0 00-.745-.148c-.277 0-.526.05-.745.148-.22.1-.405.234-.558.403a1.862 1.862 0 00-.354.603c-.085.231-.127.48-.127.745 0 .266.042.514.127.746.084.231.203.432.354.601.153.172.338.306.558.404.22.099.468.148.745.148.277 0 .525-.049.745-.148.22-.098.407-.232.562-.404.156-.169.276-.37.36-.601.085-.232.127-.48.127-.746v-.001zm2.584-2.388c.014.13.022.257.026.383.003.126.005.254.005.383h.02c.074-.129.169-.248.284-.358.238-.219.525-.378.837-.464.158-.044.315-.066.47-.066.609 0 1.058.161 1.349.485.29.323.435.784.435 1.383v3.032h-.669v-2.644c0-.531-.09-.937-.274-1.22-.182-.283-.52-.424-1.013-.424a2.744 2.744 0 00-.283.041 1.226 1.226 0 00-.492.224 1.615 1.615 0 00-.461.552c-.135.245-.203.585-.203 1.021v2.45h-.669v-3.726a20.515 20.515 0 00-.051-1.052h.689zm-68.592 1.967H0V37.38h42.983l-.001 1.346z" fill="#3172B9"/></svg>
